svg/monica.svg

<svg xmlns="http://www.w3.org/2000/svg" xmlns:xlink="http://www.w3.org/1999/xlink" width="500" height="500" version="1.1" viewBox="0 0 500 500"><title>Artboard 3.1</title><desc>Created using Figma</desc><g id="Canvas" transform="translate(-2984 68)"><clipPath id="clip-0" clip-rule="evenodd"><path fill="#FFF" d="M 2984 -68L 3484 -68L 3484 432L 2984 432L 2984 -68Z"/></clipPath><g id="Artboard 3.1" clip-path="url(#clip-0)"><g id="Group 2"><g id="Oval"><use fill="#2C2B29" transform="translate(3002.51 -26.4788)" xlink:href="#path0_fill"/></g><g id="Oval"><use fill="#FFF" transform="translate(3047.56 17.3456)" xlink:href="#path1_fill"/></g><g id="Oval 2"><use fill="#2C2B29" transform="translate(2990 -39)" xlink:href="#path2_fill"/></g><g id="Oval 2"><use fill="#2C2B29" transform="matrix(-1 0 0 1 3478 -39)" xlink:href="#path2_fill"/></g><g id="Group"><g id="Oval 4"><use fill="#2B2A28" transform="translate(3265.32 122.647)" xlink:href="#path3_fill"/></g><g id="Oval 3"><use fill="#FFF" transform="translate(3292.63 154.768)" xlink:href="#path4_fill"/></g></g><g id="Group"><g id="Oval 4"><use fill="#2B2A28" transform="matrix(-1 0 0 1 3203.93 122.647)" xlink:href="#path3_fill"/></g><g id="Oval 3"><use fill="#FFF" transform="matrix(-1 0 0 1 3176.62 154.768)" xlink:href="#path4_fill"/></g></g><g id="Oval 5"><use fill="#2C2B29" transform="translate(3200.22 256.501)" xlink:href="#path5_fill"/></g></g></g></g><defs><path id="path0_fill" fill-rule="evenodd" d="M 235.425 429.479C 349.64 429.479 476.369 356.022 460.345 214.739C 444.321 73.4567 349.64 0 235.425 0C 121.21 0 27.2705 64.3949 2.77082 214.739C -21.7289 365.084 121.21 429.479 235.425 429.479Z"/><path id="path1_fill" fill-rule="evenodd" d="M 188.85 344.334C 280.47 344.334 382.128 285.44 369.274 172.167C 356.42 58.8939 280.47 0 188.85 0C 97.2312 0 21.8755 51.6286 2.22266 172.167C -17.4302 292.706 97.2312 344.334 188.85 344.334Z"/><path id="path2_fill" fill-rule="evenodd" d="M 65.5865 165.28C 78.0014 165.322 83.3945 120.9 105.565 100.675C 125.919 82.1083 172.677 75.742 172.677 54.2762C 172.677 9.42729 124.055 0 81.1199 0C 38.1853 0 0 45.4903 0 90.3392C 0 135.188 41.7747 165.201 65.5865 165.28Z"/><path id="path3_fill" fill-rule="evenodd" d="M 69.6 154.572C 102.094 146.823 115.643 133.157 115.643 88.997C 115.643 44.8368 94.944 0 59.3049 0C 23.6657 0 0 31.8863 0 76.0465C 0 120.207 37.106 162.32 69.6 154.572Z"/><path id="path4_fill" fill-rule="evenodd" d="M 30.3863 66.4287C 39.2286 66.4287 41.8586 64.1715 45.8555 59.1037C 50.3374 53.421 53.6797 46.8294 52.5868 33.2144C 50.7608 10.465 41.1736 0 22.4162 0C 3.6587 0 -3.78365e-16 14.4228 0 33.2144C -3.78365e-16 52.0059 11.6288 66.4287 30.3863 66.4287Z"/><path id="path5_fill" fill-rule="evenodd" d="M 35.2906 50.085C 52.9487 50.085 70.0718 24.0956 70.0718 12.9499C 70.0718 1.80416 52.6939 0 35.0359 0C 17.3779 0 0 1.80416 0 12.9499C 0 24.0956 17.6326 50.085 35.2906 50.085Z"/></defs></svg>

<svg xmlns="http://www.w3.org/2000/svg" xmlns:xlink="http://www.w3.org/1999/xlink" width="500" height="500"><g transform="translate(-2984 68)"><clipPath id="a" clip-rule="evenodd"><path fill="#FFF" d="M2984-68h500v500h-500V-68Z"/></clipPath><g clip-path="url(#a)"><use xlink:href="#b" fill="#2C2B29" transform="translate(3002.51 -26.479)"/><use xlink:href="#c" fill="#FFF" transform="translate(3047.56 17.346)"/><use xlink:href="#d" fill="#2C2B29" transform="translate(2990 -39)"/><use xlink:href="#d" fill="#2C2B29" transform="matrix(-1 0 0 1 3478 -39)"/><use xlink:href="#e" fill="#2B2A28" transform="translate(3265.32 122.647)"/><use xlink:href="#f" fill="#FFF" transform="translate(3292.63 154.768)"/><use xlink:href="#e" fill="#2B2A28" transform="matrix(-1 0 0 1 3203.93 122.647)"/><use xlink:href="#f" fill="#FFF" transform="matrix(-1 0 0 1 3176.62 154.768)"/><use xlink:href="#g" fill="#2C2B29" transform="translate(3200.22 256.501)"/></g></g><defs><path id="b" fill-rule="evenodd" d="M235.425 429.479c114.215 0 240.944-73.457 224.92-214.74C444.321 73.457 349.64 0 235.425 0 121.21 0 27.27 64.395 2.771 214.739c-24.5 150.345 118.439 214.74 232.654 214.74Z"/><path id="c" fill-rule="evenodd" d="M188.85 344.334c91.62 0 193.278-58.894 180.424-172.167C356.42 58.894 280.47 0 188.85 0 97.231 0 21.875 51.629 2.223 172.167-17.43 292.706 97.23 344.334 188.85 344.334Z"/><path id="d" fill-rule="evenodd" d="M65.587 165.28c12.414.042 17.807-44.38 39.978-64.605 20.354-18.567 67.112-24.933 67.112-46.399C172.677 9.427 124.055 0 81.12 0S0 45.49 0 90.34c0 44.848 41.775 74.861 65.587 74.94Z"/><path id="e" fill-rule="evenodd" d="M69.6 154.572c32.494-7.749 46.043-21.415 46.043-65.575C115.643 44.837 94.944 0 59.305 0 23.665 0 0 31.886 0 76.046c0 44.161 37.106 86.274 69.6 78.526Z"/><path id="f" fill-rule="evenodd" d="M30.386 66.429c8.843 0 11.473-2.258 15.47-7.325 4.481-5.683 7.824-12.275 6.73-25.89C50.762 10.465 41.175 0 22.417 0 3.66 0 0 14.423 0 33.214 0 52.006 11.629 66.43 30.386 66.43Z"/><path id="g" fill-rule="evenodd" d="M35.29 50.085c17.659 0 34.782-25.99 34.782-37.135C70.072 1.804 52.694 0 35.036 0S0 1.804 0 12.95c0 11.146 17.633 37.135 35.29 37.135Z"/></defs></svg>
